svgs/sharp-regular/camera-retro.svg

<svg xmlns="http://www.w3.org/2000/svg" viewBox="0 0 512 512"><!--! Font Awesome Pro 6.6.0 by @fontawesome - https://fontawesome.com License - https://fontawesome.com/license (Commercial License) Copyright 2024 Fonticons, Inc. --><path d="M192 112L48 112l0 80 108.1 0c23.5-29.3 59.5-48 99.9-48s76.5 18.7 99.9 48L464 192l0-112L267.3 80l-53.9 26.9c-6.7 3.3-14 5.1-21.5 5.1zM48 240l0 192 416 0 0-192-84 0c2.6 10.2 4 21 4 32c0 70.7-57.3 128-128 128s-128-57.3-128-128c0-11 1.4-21.8 4-32l-84 0zM192 64l64-32 208 0 48 0 0 48 0 352 0 48-48 0L48 480 0 480l0-48L0 112 0 64l48 0 16 0 0-32 96 0 0 32 32 0zM336 272a80 80 0 1 0 -160 0 80 80 0 1 0 160 0z"/></svg>

<svg xmlns="http://www.w3.org/2000/svg" viewBox="0 0 512 512"><!--! Font Awesome Pro 6.4.0 by @fontawesome - https://fontawesome.com License - https://fontawesome.com/license (Commercial License) Copyright 2023 Fonticons, Inc. --><path d="M192 112H48v80H156.1c23.5-29.3 59.5-48 99.9-48s76.5 18.7 99.9 48H464V80H267.3l-53.9 26.9c-6.7 3.3-14 5.1-21.5 5.1zM48 240V432H464V240H380c2.6 10.2 4 21 4 32c0 70.7-57.3 128-128 128s-128-57.3-128-128c0-11 1.4-21.8 4-32H48zM192 64l64-32H464h48V80 432v48H464 48 0V432 112 64H48 64V32h96V64h32zM336 272a80 80 0 1 0 -160 0 80 80 0 1 0 160 0z"/></svg>
